public/images/gosolve_logo.svg

<svg width="187" height="37" viewBox="0 0 187 37" fill="none" xmlns="http://www.w3.org/2000/svg">
<path d="M44.22 16.7032C44.22 22.2128 39.7535 26.6793 34.2438 26.6793C28.7342 26.6793 24.2677 22.2128 24.2677 16.7032C24.2677 11.1935 28.7342 6.72705 34.2438 6.72705C39.7535 6.72705 44.22 11.1935 44.22 16.7032ZM27.6301 16.7032C27.6301 20.3559 30.5911 23.317 34.2438 23.317C37.8965 23.317 40.8576 20.3559 40.8576 16.7032C40.8576 13.0505 37.8965 10.0894 34.2438 10.0894C30.5911 10.0894 27.6301 13.0505 27.6301 16.7032Z" fill="url(#paint0_linear_45_125)"/>
<path d="M34.2438 6.72705C35.5539 6.72705 36.8512 6.98509 38.0615 7.48644C39.2719 7.98778 40.3717 8.72262 41.298 9.64899C42.2244 10.5754 42.9592 11.6751 43.4606 12.8855C43.9619 14.0958 44.22 15.3931 44.22 16.7032C44.22 18.0132 43.9619 19.3105 43.4606 20.5209C42.9592 21.7312 42.2244 22.831 41.298 23.7573C40.3716 24.6837 39.2719 25.4185 38.0615 25.9199C36.8512 26.4212 35.5539 26.6793 34.2438 26.6793L34.2438 23.3169C35.1124 23.317 35.9724 23.1459 36.7748 22.8135C37.5773 22.4811 38.3064 21.994 38.9205 21.3798C39.5346 20.7657 40.0218 20.0366 40.3542 19.2341C40.6866 18.4317 40.8576 17.5717 40.8576 16.7032C40.8576 15.8346 40.6866 14.9746 40.3542 14.1722C40.0218 13.3697 39.5347 12.6406 38.9205 12.0265C38.3064 11.4124 37.5773 10.9252 36.7748 10.5928C35.9724 10.2604 35.1124 10.0894 34.2438 10.0894V6.72705Z" fill="url(#paint1_linear_45_125)"/>
<circle cx="34.2439" cy="8.41441" r="1.67173" fill="#59EEB8"/>
<path d="M9.29753 6.43675C10.8233 6.43675 12.1702 6.74667 13.3384 7.3665C14.5304 7.9625 15.4601 8.71345 16.1276 9.61937V6.75859H20.24V26.784C20.24 28.5959 19.8586 30.2051 19.0957 31.6116C18.3328 33.042 17.2243 34.1625 15.77 34.973C14.3397 35.7836 12.6232 36.1888 10.6206 36.1888C7.95058 36.1888 5.73348 35.5571 3.96933 34.2936C2.20518 33.0539 1.20391 31.3613 0.965513 29.2157H5.00636C5.31628 30.2408 5.97188 31.0633 6.97315 31.6831C7.99826 32.3268 9.21409 32.6486 10.6206 32.6486C12.2656 32.6486 13.5887 32.148 14.59 31.1467C15.6151 30.1455 16.1276 28.6912 16.1276 26.784V23.4941C15.4363 24.4239 14.4946 25.2106 13.3026 25.8543C12.1345 26.4741 10.7994 26.784 9.29753 26.784C7.58106 26.784 6.00764 26.3549 4.57725 25.4967C3.1707 24.6146 2.05023 23.3988 1.21583 21.8492C0.405277 20.2758 0 18.4997 0 16.521C0 14.5423 0.405277 12.7901 1.21583 11.2643C2.05023 9.73857 3.1707 8.55849 4.57725 7.7241C6.00764 6.86587 7.58106 6.43675 9.29753 6.43675ZM16.1276 16.5925C16.1276 15.2336 15.8416 14.0536 15.2694 13.0523C14.7211 12.051 13.994 11.2882 13.0881 10.7637C12.1821 10.2392 11.2047 9.97696 10.1558 9.97696C9.10681 9.97696 8.12938 10.2392 7.22347 10.7637C6.31755 11.2643 5.57852 12.0153 5.00636 13.0165C4.45805 13.994 4.18389 15.1621 4.18389 16.521C4.18389 17.8799 4.45805 19.0719 5.00636 20.097C5.57852 21.1221 6.31755 21.9088 7.22347 22.4571C8.15322 22.9816 9.13065 23.2438 10.1558 23.2438C11.2047 23.2438 12.1821 22.9816 13.0881 22.4571C13.994 21.9326 14.7211 21.1698 15.2694 20.1685C15.8416 19.1434 16.1276 17.9514 16.1276 16.5925Z" fill="#1CBF84"/>
<path d="M56.5873 26.7125C54.9185 26.7125 53.4166 26.4264 52.0815 25.8543C50.7465 25.2583 49.6976 24.4239 48.9347 23.3511C48.1718 22.2783 47.7904 21.0267 47.7904 19.5963H52.1531C52.2484 20.6691 52.6656 21.5512 53.4046 22.2425C54.1675 22.9339 55.2284 23.2796 56.5873 23.2796C57.9938 23.2796 59.0904 22.9458 59.8772 22.2783C60.6639 21.587 61.0572 20.7049 61.0572 19.6321C61.0572 18.7977 60.8069 18.1183 60.3063 17.5938C59.8295 17.0693 59.2216 16.664 58.4825 16.378C57.7673 16.0919 56.7661 15.782 55.4787 15.4482C53.8576 15.0191 52.5345 14.59 51.5094 14.1609C50.5081 13.7079 49.6499 13.0165 48.9347 12.0868C48.2195 11.157 47.8619 9.91736 47.8619 8.36777C47.8619 6.93739 48.2195 5.6858 48.9347 4.61301C49.6499 3.54021 50.6511 2.71774 51.9385 2.14558C53.2258 1.57343 54.7158 1.28735 56.4085 1.28735C58.8163 1.28735 60.7831 1.89526 62.3088 3.11109C63.8584 4.30309 64.7166 5.94803 64.8835 8.04594H60.3778C60.3063 7.14003 59.8772 6.36523 59.0904 5.72156C58.3037 5.07788 57.2667 4.75604 55.9793 4.75604C54.8112 4.75604 53.8576 5.05404 53.1186 5.65004C52.3795 6.24603 52.01 7.10426 52.01 8.22474C52.01 8.98761 52.2365 9.61937 52.6895 10.12C53.1662 10.5968 53.7622 10.9782 54.4774 11.2643C55.1926 11.5504 56.1701 11.8603 57.4097 12.1941C59.0547 12.647 60.3897 13.1 61.4148 13.5529C62.4638 14.0059 63.3459 14.7092 64.061 15.6628C64.8001 16.5925 65.1696 17.8441 65.1696 19.4175C65.1696 20.681 64.8239 21.873 64.1326 22.9935C63.4651 24.114 62.4757 25.0199 61.1645 25.7112C59.8772 26.3788 58.3514 26.7125 56.5873 26.7125Z" fill="#1CBF84"/>
<path d="M78.5264 26.784C76.6669 26.784 74.9862 26.3668 73.4843 25.5324C71.9824 24.6742 70.8023 23.4822 69.9441 21.9565C69.0859 20.4069 68.6567 18.6189 68.6567 16.5925C68.6567 14.59 69.0978 12.8139 69.9798 11.2643C70.8619 9.71473 72.0658 8.52273 73.5916 7.68834C75.1173 6.85395 76.8219 6.43675 78.7052 6.43675C80.5886 6.43675 82.2931 6.85395 83.8189 7.68834C85.3446 8.52273 86.5485 9.71473 87.4306 11.2643C88.3127 12.8139 88.7537 14.59 88.7537 16.5925C88.7537 18.5951 88.3008 20.3711 87.3948 21.9207C86.4889 23.4703 85.2493 24.6742 83.6758 25.5324C82.1262 26.3668 80.4098 26.784 78.5264 26.784ZM78.5264 23.2438C79.5754 23.2438 80.5528 22.9935 81.4587 22.4929C82.3885 21.9922 83.1394 21.2413 83.7116 20.24C84.2837 19.2387 84.5698 18.0229 84.5698 16.5925C84.5698 15.1621 84.2957 13.9582 83.7473 12.9808C83.199 11.9795 82.4719 11.2286 81.566 10.7279C80.6601 10.2273 79.6827 9.97696 78.6337 9.97696C77.5847 9.97696 76.6073 10.2273 75.7014 10.7279C74.8193 11.2286 74.1161 11.9795 73.5916 12.9808C73.0671 13.9582 72.8049 15.1621 72.8049 16.5925C72.8049 18.7143 73.3413 20.3592 74.4141 21.5274C75.5107 22.6717 76.8815 23.2438 78.5264 23.2438Z" fill="#1CBF84"/>
<path d="M96.8603 0V26.4622H92.7837V0H96.8603Z" fill="#1CBF84"/>
<path d="M109.829 22.8147L115.408 6.75859H119.735L112.225 26.4622H107.362L99.8881 6.75859H104.251L109.829 22.8147Z" fill="#1CBF84"/>
<path d="M140.875 16.1276C140.875 16.8667 140.827 17.5342 140.732 18.1302H125.677C125.796 19.7036 126.38 20.9671 127.429 21.9207C128.478 22.8743 129.766 23.3511 131.291 23.3511C133.485 23.3511 135.034 22.4333 135.94 20.5976H140.339C139.743 22.4094 138.658 23.8994 137.084 25.0676C135.535 26.2119 133.604 26.784 131.291 26.784C129.408 26.784 127.715 26.3668 126.213 25.5324C124.735 24.6742 123.567 23.4822 122.709 21.9565C121.875 20.4069 121.457 18.6189 121.457 16.5925C121.457 14.5661 121.863 12.7901 122.673 11.2643C123.508 9.71473 124.664 8.52273 126.142 7.68834C127.644 6.85395 129.36 6.43675 131.291 6.43675C133.151 6.43675 134.808 6.84203 136.262 7.65258C137.716 8.46314 138.849 9.60745 139.659 11.0855C140.47 12.5397 140.875 14.2205 140.875 16.1276ZM136.62 14.8403C136.596 13.3384 136.059 12.1345 135.01 11.2286C133.961 10.3226 132.662 9.86968 131.113 9.86968C129.706 9.86968 128.502 10.3226 127.501 11.2286C126.499 12.1106 125.904 13.3145 125.713 14.8403H136.62Z" fill="#1CBF84"/>
<path d="M155.652 6.80368C156.157 6.80368 156.608 6.90862 157.005 7.11851C157.409 7.3284 157.724 7.63935 157.949 8.05135C158.182 8.46335 158.299 8.96087 158.299 9.54389V13.3335H156.981V9.74212C156.981 9.16687 156.838 8.72766 156.55 8.42448C156.262 8.11354 155.87 7.95807 155.372 7.95807C154.875 7.95807 154.478 8.11354 154.183 8.42448C153.895 8.72766 153.751 9.16687 153.751 9.74212V13.3335H152.434V9.74212C152.434 9.16687 152.29 8.72766 152.002 8.42448C151.715 8.11354 151.322 7.95807 150.825 7.95807C150.327 7.95807 149.931 8.11354 149.635 8.42448C149.348 8.72766 149.204 9.16687 149.204 9.74212V13.3335H147.875V6.90862H149.204V7.64323C149.421 7.37893 149.697 7.17293 150.032 7.02523C150.366 6.87753 150.724 6.80368 151.104 6.80368C151.618 6.80368 152.076 6.91251 152.48 7.13017C152.885 7.34783 153.196 7.66267 153.413 8.07467C153.608 7.68599 153.911 7.37893 154.323 7.15349C154.735 6.92028 155.178 6.80368 155.652 6.80368Z" fill="#1CBF84"/>
<path d="M160.667 6.05741C160.426 6.05741 160.224 5.97579 160.06 5.81254C159.897 5.64929 159.816 5.44718 159.816 5.20619C159.816 4.96521 159.897 4.7631 160.06 4.59985C160.224 4.4366 160.426 4.35498 160.667 4.35498C160.9 4.35498 161.098 4.4366 161.261 4.59985C161.425 4.7631 161.506 4.96521 161.506 5.20619C161.506 5.44718 161.425 5.64929 161.261 5.81254C161.098 5.97579 160.9 6.05741 160.667 6.05741ZM161.32 6.90862V13.3335H159.99V6.90862H161.32Z" fill="#1CBF84"/>
<path d="M166.307 6.80368C166.812 6.80368 167.263 6.90862 167.659 7.11851C168.063 7.3284 168.378 7.63935 168.604 8.05135C168.829 8.46335 168.942 8.96087 168.942 9.54389V13.3335H167.624V9.74212C167.624 9.16687 167.48 8.72766 167.193 8.42448C166.905 8.11354 166.513 7.95807 166.015 7.95807C165.518 7.95807 165.121 8.11354 164.826 8.42448C164.538 8.72766 164.394 9.16687 164.394 9.74212V13.3335H163.065V6.90862H164.394V7.64323C164.612 7.37893 164.888 7.17293 165.222 7.02523C165.564 6.87753 165.926 6.80368 166.307 6.80368Z" fill="#1CBF84"/>
<path d="M171.314 6.05741C171.073 6.05741 170.871 5.97579 170.707 5.81254C170.544 5.64929 170.463 5.44718 170.463 5.20619C170.463 4.96521 170.544 4.7631 170.707 4.59985C170.871 4.4366 171.073 4.35498 171.314 4.35498C171.547 4.35498 171.745 4.4366 171.908 4.59985C172.072 4.7631 172.153 4.96521 172.153 5.20619C172.153 5.44718 172.072 5.64929 171.908 5.81254C171.745 5.97579 171.547 6.05741 171.314 6.05741ZM171.967 6.90862V13.3335H170.637V6.90862H171.967Z" fill="#1CBF84"/>
<rect x="147" y="16.6665" width="40" height="19.3333" rx="4" fill="#1CBF84"/>
<path d="M158.012 26.1353C158.486 26.2364 158.867 26.4735 159.155 26.8466C159.442 27.212 159.586 27.6318 159.586 28.106C159.586 28.79 159.345 29.3342 158.863 29.7384C158.389 30.1349 157.724 30.3331 156.869 30.3331H153.056V22.1475H156.741C157.573 22.1475 158.222 22.3379 158.688 22.7188C159.162 23.0997 159.4 23.6167 159.4 24.2697C159.4 24.7516 159.271 25.152 159.015 25.4707C158.766 25.7894 158.432 26.011 158.012 26.1353ZM155.05 25.459H156.356C156.683 25.459 156.931 25.3891 157.102 25.2491C157.281 25.1014 157.371 24.8877 157.371 24.6078C157.371 24.328 157.281 24.1142 157.102 23.9665C156.931 23.8188 156.683 23.7449 156.356 23.7449H155.05V25.459ZM156.519 28.724C156.854 28.724 157.11 28.6501 157.289 28.5024C157.476 28.3469 157.569 28.1254 157.569 27.8378C157.569 27.5501 157.472 27.3247 157.277 27.1615C157.091 26.9982 156.83 26.9166 156.496 26.9166H155.05V28.724H156.519Z" fill="white"/>
<path d="M162.737 23.7449V25.4007H165.407V26.9399H162.737V28.7356H165.757V30.3331H160.743V22.1475H165.757V23.7449H162.737Z" fill="white"/>
<path d="M172.94 22.1475V23.7449H170.771V30.3331H168.777V23.7449H166.608V22.1475H172.94Z" fill="white"/>
<path d="M178.036 28.8872H174.981L174.491 30.3331H172.404L175.366 22.1475H177.675L180.636 30.3331H178.526L178.036 28.8872ZM177.523 27.348L176.508 24.3513L175.506 27.348H177.523Z" fill="white"/>
<defs>
<linearGradient id="paint0_linear_45_125" x1="34.2438" y1="26.6793" x2="34.2438" y2="7.1631" gradientUnits="userSpaceOnUse">
<stop stop-color="#35D99E"/>
<stop offset="1" stop-color="#59EEB8"/>
</linearGradient>
<linearGradient id="paint1_linear_45_125" x1="34.2438" y1="12.3782" x2="34.2438" y2="22.9727" gradientUnits="userSpaceOnUse">
<stop stop-color="#18B07D"/>
<stop offset="1" stop-color="#1BBE83" stop-opacity="0"/>
</linearGradient>
</defs>
</svg>

<svg xmlns="http://www.w3.org/2000/svg" xmlns:xlink="http://www.w3.org/1999/xlink" width="187" height="37" fill="none" xmlns:v="https://vecta.io/nano"><path d="M44.22 16.703a9.98 9.98 0 0 1-9.976 9.976 9.98 9.98 0 0 1-9.976-9.976 9.98 9.98 0 0 1 9.976-9.976 9.98 9.98 0 0 1 9.976 9.976zm-16.59 0c0 3.653 2.961 6.614 6.614 6.614s6.614-2.961 6.614-6.614-2.961-6.614-6.614-6.614-6.614 2.961-6.614 6.614z" fill="url(#A)"/><path d="M34.244 6.727c1.31 0 2.607.258 3.818.759s2.31 1.236 3.236 2.163 1.661 2.026 2.163 3.237.759 2.508.759 3.818-.258 2.607-.759 3.818-1.236 2.31-2.163 3.236-2.026 1.661-3.236 2.163-2.508.759-3.818.759v-3.362a6.61 6.61 0 0 0 4.677-1.937c.614-.614 1.101-1.343 1.434-2.146s.503-1.662.503-2.531-.171-1.729-.503-2.531a6.61 6.61 0 0 0-1.434-2.146c-.614-.614-1.343-1.101-2.146-1.434s-1.662-.503-2.531-.503V6.727z" fill="url(#B)"/><circle cx="34.244" cy="8.414" r="1.672" fill="#59eeb8"/><g fill="#1cbf84"><path d="M9.298 6.437c1.526 0 2.873.31 4.041.93 1.192.596 2.122 1.347 2.789 2.253V6.759h4.112v20.025c0 1.812-.381 3.421-1.144 4.828-.763 1.43-1.871 2.551-3.326 3.361-1.43.811-3.147 1.216-5.149 1.216-2.67 0-4.887-.632-6.651-1.895a6.87 6.87 0 0 1-3.004-5.078h4.041c.31 1.025.966 1.848 1.967 2.467 1.025.644 2.241.966 3.647.966 1.645 0 2.968-.501 3.969-1.502 1.025-1.001 1.538-2.456 1.538-4.363v-3.29c-.691.93-1.633 1.717-2.825 2.36-1.168.62-2.503.93-4.005.93-1.716 0-3.29-.429-4.72-1.287-1.407-.882-2.527-2.098-3.361-3.648C.405 20.276 0 18.5 0 16.521s.405-3.731 1.216-5.257c.834-1.526 1.955-2.706 3.361-3.54 1.43-.858 3.004-1.287 4.72-1.287zm6.83 10.156c0-1.359-.286-2.539-.858-3.54-.548-1.001-1.275-1.764-2.181-2.289s-1.883-.787-2.932-.787-2.026.262-2.932.787c-.906.501-1.645 1.252-2.217 2.253-.548.977-.822 2.146-.822 3.505s.274 2.551.822 3.576c.572 1.025 1.311 1.812 2.217 2.36.93.524 1.907.787 2.932.787 1.049 0 2.026-.262 2.932-.787s1.633-1.287 2.181-2.289c.572-1.025.858-2.217.858-3.576zm40.459 10.12c-1.669 0-3.171-.286-4.506-.858-1.335-.596-2.384-1.43-3.147-2.503s-1.144-2.324-1.144-3.755h4.363c.095 1.073.512 1.955 1.252 2.646.763.691 1.824 1.037 3.183 1.037 1.407 0 2.503-.334 3.29-1.001.787-.691 1.18-1.573 1.18-2.646 0-.834-.25-1.514-.751-2.038-.477-.525-1.085-.93-1.824-1.216-.715-.286-1.716-.596-3.004-.93-1.621-.429-2.944-.858-3.969-1.287-1.001-.453-1.859-1.144-2.575-2.074s-1.073-2.169-1.073-3.719c0-1.43.358-2.682 1.073-3.755s1.716-1.895 3.004-2.467 2.777-.858 4.47-.858c2.408 0 4.375.608 5.9 1.824 1.55 1.192 2.408 2.837 2.575 4.935h-4.506c-.072-.906-.501-1.681-1.287-2.324s-1.824-.966-3.111-.966c-1.168 0-2.122.298-2.861.894S52.01 7.104 52.01 8.225c0 .763.227 1.395.68 1.895.477.477 1.073.858 1.788 1.144s1.693.596 2.932.93c1.645.453 2.98.906 4.005 1.359 1.049.453 1.931 1.156 2.646 2.11.739.93 1.109 2.181 1.109 3.755 0 1.264-.346 2.456-1.037 3.576-.667 1.12-1.657 2.026-2.968 2.718-1.287.668-2.813 1.001-4.577 1.001zm21.939.071c-1.859 0-3.54-.417-5.042-1.252a9.27 9.27 0 0 1-3.54-3.576c-.858-1.55-1.287-3.338-1.287-5.364 0-2.003.441-3.779 1.323-5.328s2.086-2.742 3.612-3.576 3.23-1.252 5.114-1.252 3.588.417 5.114 1.252 2.73 2.026 3.612 3.576 1.323 3.326 1.323 5.328-.453 3.779-1.359 5.328a9.5 9.5 0 0 1-3.719 3.612c-1.55.834-3.266 1.252-5.149 1.252zm0-3.54a5.96 5.96 0 0 0 2.932-.751c.93-.501 1.681-1.252 2.253-2.253s.858-2.217.858-3.647-.274-2.634-.823-3.612c-.548-1.001-1.275-1.752-2.181-2.253a5.96 5.96 0 0 0-2.932-.751 5.96 5.96 0 0 0-2.932.751c-.882.501-1.585 1.252-2.11 2.253-.525.977-.787 2.181-.787 3.612 0 2.122.536 3.767 1.609 4.935 1.097 1.144 2.467 1.716 4.112 1.716zM96.86 0v26.462h-4.077V0h4.077zm12.969 22.815l5.579-16.056h4.327l-7.51 19.704h-4.863L99.888 6.759h4.363l5.578 16.056zm31.046-6.687a12.79 12.79 0 0 1-.143 2.003h-15.055c.119 1.573.703 2.837 1.752 3.791s2.337 1.43 3.862 1.43c2.194 0 3.743-.918 4.649-2.753h4.399c-.596 1.812-1.681 3.302-3.255 4.47-1.549 1.144-3.48 1.716-5.793 1.716-1.883 0-3.576-.417-5.078-1.252a9.35 9.35 0 0 1-3.504-3.576c-.834-1.55-1.252-3.338-1.252-5.364s.406-3.802 1.216-5.328c.835-1.55 1.991-2.742 3.469-3.576 1.502-.834 3.218-1.252 5.149-1.252 1.86 0 3.517.405 4.971 1.216a8.56 8.56 0 0 1 3.397 3.433c.811 1.454 1.216 3.135 1.216 5.042zm-4.255-1.287c-.024-1.502-.561-2.706-1.61-3.612s-2.348-1.359-3.897-1.359c-1.407 0-2.611.453-3.612 1.359-1.002.882-1.597 2.086-1.788 3.612h10.907zm19.032-8.037a2.85 2.85 0 0 1 1.353.315 2.23 2.23 0 0 1 .944.933c.233.412.35.91.35 1.493v3.79h-1.318V9.742c0-.575-.143-1.014-.431-1.318-.288-.311-.68-.466-1.178-.466s-.894.155-1.189.466c-.288.303-.432.742-.432 1.318v3.591h-1.317V9.742c0-.575-.144-1.014-.432-1.318-.287-.311-.68-.466-1.177-.466s-.894.155-1.19.466c-.287.303-.431.742-.431 1.318v3.591h-1.329V6.909h1.329v.735a2.2 2.2 0 0 1 .828-.618 2.62 2.62 0 0 1 1.072-.222 2.86 2.86 0 0 1 1.376.326 2.23 2.23 0 0 1 .933.944c.195-.389.498-.696.91-.921.412-.233.855-.35 1.329-.35z"/><use xlink:href="#C"/><path d="M166.307 6.804c.505 0 .956.105 1.352.315.404.21.719.521.945.933s.338.91.338 1.493v3.79h-1.318V9.742c0-.575-.144-1.014-.431-1.318-.288-.311-.68-.466-1.178-.466s-.894.155-1.189.466c-.288.303-.432.742-.432 1.318v3.591h-1.329V6.909h1.329v.735c.218-.264.494-.47.828-.618a2.71 2.71 0 0 1 1.085-.222z"/><use xlink:href="#C" x="10.647"/><rect x="147" y="16.667" width="40" height="19.333" rx="4"/></g><path d="M158.012 26.135c.474.101.855.338 1.143.711a1.98 1.98 0 0 1 .431 1.259c0 .684-.241 1.228-.723 1.632-.474.396-1.139.595-1.994.595h-3.813v-8.186h3.685c.832 0 1.481.19 1.947.571.474.381.712.898.712 1.551 0 .482-.129.882-.385 1.201-.249.319-.583.54-1.003.665zm-2.962-.676h1.306c.327 0 .575-.07.746-.21.179-.148.269-.361.269-.641s-.09-.494-.269-.641c-.171-.148-.419-.222-.746-.222h-1.306v1.714zm1.469 3.265c.335 0 .591-.074.77-.222.187-.155.28-.377.28-.665s-.097-.513-.292-.676c-.186-.163-.447-.245-.781-.245h-1.446v1.807h1.469zm6.218-4.979v1.656h2.67v1.539h-2.67v1.796h3.02v1.598h-5.014v-8.186h5.014v1.597h-3.02zm10.203-1.597v1.597h-2.169v6.588h-1.994v-6.588h-2.169v-1.597h6.332zm5.096 6.739h-3.055l-.49 1.446h-2.087l2.962-8.186h2.309l2.961 8.186h-2.11l-.49-1.446zm-.513-1.539l-1.015-2.997-1.002 2.997h2.017z" fill="#fff"/><defs><linearGradient id="A" x1="34.244" y1="26.679" x2="34.244" y2="7.163" gradientUnits="userSpaceOnUse"><stop stop-color="#35d99e"/><stop offset="1" stop-color="#59eeb8"/></linearGradient><linearGradient id="B" x1="34.244" y1="12.378" x2="34.244" y2="22.973" gradientUnits="userSpaceOnUse"><stop stop-color="#18b07d"/><stop offset="1" stop-color="#1bbe83" stop-opacity="0"/></linearGradient><path id="C" d="M160.667 6.057c-.241 0-.443-.082-.607-.245s-.244-.365-.244-.606.081-.443.244-.606.366-.245.607-.245c.233 0 .431.082.594.245a.82.82 0 0 1 .245.606.82.82 0 0 1-.245.606c-.163.163-.361.245-.594.245zm.653.851v6.425h-1.33V6.909h1.33z"/></defs></svg>
